src/lib/packages/icons/src/assets/line/stopwatch-plus.svg

<svg width="24" height="24" viewBox="0 0 24 24" fill="none" xmlns="http://www.w3.org/2000/svg">
<path d="M17.5979 7.96301L18.531 7.03003C18.824 6.73703 18.824 6.26199 18.531 5.96899C18.238 5.67599 17.763 5.67599 17.47 5.96899L16.4919 6.94702C15.1039 5.88702 13.377 5.25 11.5 5.25C6.951 5.25 3.25 8.951 3.25 13.5C3.25 18.049 6.951 21.75 11.5 21.75C16.049 21.75 19.75 18.049 19.75 13.5C19.75 11.368 18.9299 9.42901 17.5979 7.96301ZM11.5 20.25C7.778 20.25 4.75 17.222 4.75 13.5C4.75 9.778 7.778 6.75 11.5 6.75C15.222 6.75 18.25 9.778 18.25 13.5C18.25 17.222 15.222 20.25 11.5 20.25ZM8.25 3C8.25 2.586 8.586 2.25 9 2.25H14C14.414 2.25 14.75 2.586 14.75 3C14.75 3.414 14.414 3.75 14 3.75H9C8.586 3.75 8.25 3.414 8.25 3ZM14.75 13.5C14.75 13.914 14.414 14.25 14 14.25H12.25V16C12.25 16.414 11.914 16.75 11.5 16.75C11.086 16.75 10.75 16.414 10.75 16V14.25H9C8.586 14.25 8.25 13.914 8.25 13.5C8.25 13.086 8.586 12.75 9 12.75H10.75V11C10.75 10.586 11.086 10.25 11.5 10.25C11.914 10.25 12.25 10.586 12.25 11V12.75H14C14.414 12.75 14.75 13.086 14.75 13.5Z" fill="currentColor"/>
</svg>

<svg xmlns="http://www.w3.org/2000/svg" width="24" height="24" fill="none"><path fill="currentColor" d="m17.598 7.963.933-.933a.75.75 0 0 0-1.061-1.061l-.978.978A8.197 8.197 0 0 0 11.5 5.25c-4.549 0-8.25 3.701-8.25 8.25 0 4.549 3.701 8.25 8.25 8.25 4.549 0 8.25-3.701 8.25-8.25 0-2.132-.82-4.071-2.152-5.537ZM11.5 20.25a6.758 6.758 0 0 1-6.75-6.75 6.758 6.758 0 0 1 6.75-6.75 6.758 6.758 0 0 1 6.75 6.75 6.758 6.758 0 0 1-6.75 6.75ZM8.25 3A.75.75 0 0 1 9 2.25h5a.75.75 0 0 1 0 1.5H9A.75.75 0 0 1 8.25 3Zm6.5 10.5a.75.75 0 0 1-.75.75h-1.75V16a.75.75 0 0 1-1.5 0v-1.75H9a.75.75 0 0 1 0-1.5h1.75V11a.75.75 0 0 1 1.5 0v1.75H14a.75.75 0 0 1 .75.75Z"/></svg>
